ufans-frontend-package/public/assets/images/new-chat/video-call.svg

<svg width="100" height="91" viewBox="0 0 100 91" fill="none" xmlns="http://www.w3.org/2000/svg">
<g clip-path="url(#clip0_1343_19)">
<path fill-rule="evenodd" clip-rule="evenodd" d="M25.1708 37.3716C28.2388 42.9136 31.7788 48.2278 36.385 53.0862C40.9911 57.969 46.7202 62.4123 54.1503 66.1965C54.6955 66.4732 55.2163 66.4732 55.6883 66.2779C56.4045 66.0012 57.1125 65.4315 57.8286 64.7154C58.3739 64.162 59.0656 63.2912 59.7736 62.3309C62.6219 58.5712 66.162 53.9162 71.1506 56.2437C71.2564 56.3007 71.3459 56.3495 71.4517 56.4065L88.0939 65.9768C88.1509 66.0012 88.1997 66.0582 88.2567 66.0826C90.454 67.5881 91.3573 69.9237 91.3817 72.5523C91.3817 75.2378 90.397 78.2571 88.9403 80.8043C87.0197 84.1734 84.1958 86.3951 80.9325 87.8762C77.8319 89.3003 74.3814 90.0735 71.0611 90.5617C65.8527 91.3267 60.9699 90.8384 55.9813 89.3003C51.0985 87.7948 46.1913 85.2964 40.8202 81.9761L40.4377 81.732C37.9719 80.1939 35.3107 78.55 32.7066 76.605C23.1363 69.3947 13.4032 58.9699 7.0718 47.5116C1.74954 37.8925 -1.15573 27.5002 0.43118 17.6044C1.31009 12.1763 3.6457 7.23654 7.69843 3.9732C11.2385 1.12489 16.0074 -0.437612 22.176 0.107636C22.8921 0.164602 23.5187 0.571503 23.8443 1.17372L34.5132 19.2157C36.0757 21.2421 36.271 23.244 35.4165 25.246C34.7004 26.8899 33.2762 28.4035 31.3312 29.8277C30.7534 30.3241 30.0699 30.8124 29.3537 31.3332C26.9693 33.0585 24.2512 35.0604 25.187 37.4205L25.1708 37.3716Z" fill="#6661E7"/>
<path fill-rule="evenodd" clip-rule="evenodd" d="M57.7228 1.35938H81.7625C84.1551 1.35938 86.1164 3.32064 86.1164 5.71322V10.3519L99.9917 2.01042V28.3369L86.1164 20.8499V26.8883C86.1164 29.2809 84.1551 31.2422 81.7625 31.2422H57.7228C55.3221 31.2422 53.3608 29.2809 53.3608 26.8883V5.71322C53.3608 3.32064 55.3221 1.35938 57.7228 1.35938Z" fill="#6661E7"/>
</g>
<defs>
<clipPath id="clip0_1343_19">
<rect width="100" height="90.9261" fill="white"/>
</clipPath>
</defs>
</svg>

<svg xmlns="http://www.w3.org/2000/svg" xmlns:xlink="http://www.w3.org/1999/xlink" width="100" height="90.926" viewBox="0 0 100 90.926">
  <defs>
    <clipPath id="clip-path">
      <rect id="Rectangle_1" data-name="Rectangle 1" width="100" height="90.926" fill="#e44499"/>
    </clipPath>
  </defs>
  <g id="video-call" clip-path="url(#clip-path)">
    <path id="Path_1" data-name="Path 1" d="M25.171,37.372A75.629,75.629,0,0,0,36.385,53.086,63.746,63.746,0,0,0,54.15,66.2a1.776,1.776,0,0,0,1.538.081,6.627,6.627,0,0,0,2.14-1.562,23.849,23.849,0,0,0,1.945-2.385c2.848-3.76,6.388-8.415,11.377-6.087l.3.163,16.642,9.57c.057.024.106.081.163.106a7.5,7.5,0,0,1,3.125,6.47A17.449,17.449,0,0,1,88.94,80.8a16.941,16.941,0,0,1-8.008,7.072,36.49,36.49,0,0,1-9.871,2.686A33.429,33.429,0,0,1,55.981,89.3,66.539,66.539,0,0,1,40.82,81.976l-.383-.244c-2.466-1.538-5.127-3.182-7.731-5.127A96.618,96.618,0,0,1,7.072,47.512C1.75,37.893-1.156,27.5.431,17.6,1.31,12.176,3.646,7.237,7.7,3.973,11.238,1.125,16.007-.438,22.176.108a2.076,2.076,0,0,1,1.668,1.066L34.513,19.216a5.631,5.631,0,0,1,.9,6.03,11.938,11.938,0,0,1-4.085,4.582c-.578.5-1.261.985-1.977,1.506-2.384,1.725-5.1,3.727-4.167,6.087Z" fill="#e44499" fill-rule="evenodd"/>
    <path id="Path_2" data-name="Path 2" d="M57.723,1.359h24.04a4.369,4.369,0,0,1,4.354,4.354v4.639L99.992,2.01V28.337L86.116,20.85v6.038a4.369,4.369,0,0,1-4.354,4.354H57.723a4.371,4.371,0,0,1-4.362-4.354V5.713a4.371,4.371,0,0,1,4.362-4.354Z" fill="#e44499" fill-rule="evenodd"/>
  </g>
</svg>
